resources/switch-horizontal.svg

<svg width="24" height="24" fill="#f4f4f7">
  <path stroke="#555e70" stroke-linecap="round" stroke-linejoin="round" stroke-width="2" d="M8 7h12m0 0-4-4m4 4-4 4m0 6H4m0 0 4 4m-4-4 4-4"/>
</svg>

<svg xmlns="http://www.w3.org/2000/svg" width="24" height="24" fill="#f4f4f7" viewBox="0 0 24 24"><path stroke="#555e70" stroke-linecap="round" stroke-linejoin="round" stroke-width="2" d="M8 7L20 7M20 7L16 3M20 7L16 11M16 17L4 17M4 17L8 21M4 17L8 13"/></svg>
